assets/img/shape/teamDetailsShape1_4.svg

<svg width="177" height="207" viewBox="0 0 177 207" fill="none" xmlns="http://www.w3.org/2000/svg">
<path d="M26.2473 226.715C27.8437 206.499 18.174 197.182 16.2583 184.382C14.3426 171.583 15.8934 151.548 17.1249 137.346C18.3565 123.19 19.3599 115.14 17.4442 107.406C14.0233 93.3855 0.431114 60.6863 0.0206101 52.4549C-0.389894 44.2236 5.44837 44.5854 7.136 45.6709C10.8305 47.9322 12.8375 53.8117 14.297 56.9776C18.3565 65.8874 24.7877 82.3048 29.3945 92.4809C33.3627 101.3 34.2748 104.195 38.6079 103.607C42.941 102.974 42.1657 95.5564 42.1657 95.5564C42.1657 95.5564 44.9023 28.168 45.8146 21.6553C46.7268 15.1425 48.46 9.85097 54.9369 10.5294C61.4137 11.2078 62.0979 23.4643 62.0979 23.4643C62.0979 23.4643 62.326 81.7621 63.6031 89.315C64.8802 96.868 69.6238 92.9784 70.3536 91.0789C71.0834 89.1794 73.364 79.3198 73.364 79.3198C73.364 79.3198 78.883 48.3845 82.167 35.0425C85.4966 21.7005 87.8685 11.7957 91.2437 4.92121C94.619 -1.90809 101.278 0.895994 103.148 3.83576C105.018 6.77552 102.555 22.4693 102.555 22.4693C102.555 22.4693 95.3944 73.0785 94.4365 81.1742C93.4331 89.2698 92.5208 91.893 93.205 95.1946C93.9348 98.4962 99.4082 98.9484 101.278 94.5614C103.194 90.2196 106.888 82.6214 106.888 82.6214C106.888 82.6214 126.228 42.0527 131.701 34.0475C137.175 26.0423 140.778 28.0323 145.613 31.2886C150.448 34.545 142.329 51.5504 142.329 51.5504C142.329 51.5504 131.199 76.6967 124.859 90.5814C118.519 104.466 115.144 116.361 114.049 124.411C112.955 132.417 114.46 138.748 120.389 140.286C124.495 141.371 129.329 138.703 131.564 137.256C136.262 134.135 140.595 129.839 148.486 124.276C156.377 118.713 169.057 119.391 173.436 121.2C177.86 123.009 177.814 129.522 173.39 132.145C158.749 140.829 157.016 143.904 152.774 149.06C148.258 154.578 140.778 162.176 135.396 171.719C130.014 181.262 121.074 189.719 109.808 199.127C98.5415 208.534 96.3066 225.313 96.3066 225.313L94.619 242.138C94.619 242.138 90.2402 290.214 86.4545 333.451C85.1318 348.376 76.2831 502.646 75.2341 535.209C69.7607 538.149 64.2417 541.089 58.5402 544.074C49.053 536.792 39.8851 529.601 30.9908 522.455C21.3212 514.721 12.0621 507.078 3.16782 499.525C9.27977 443.036 25.2894 239.514 26.2473 226.715Z" fill="#043F2E"/>
</svg>

<svg version="1.2" xmlns="http://www.w3.org/2000/svg" viewBox="0 0 177 207" width="177" height="207"><style>.a{fill:#c32583}</style><path class="a" d="m26.2 226.7c1.6-20.2-8-29.5-9.9-42.3-2-12.8-0.4-32.9 0.8-47.1 1.3-14.1 2.3-22.2 0.3-29.9-3.4-14-17-46.7-17.4-54.9-0.4-8.3 5.4-7.9 7.1-6.8 3.7 2.2 5.7 8.1 7.2 11.3 4.1 8.9 10.5 25.3 15.1 35.5 4 8.8 4.9 11.7 9.2 11.1 4.3-0.6 3.6-8 3.6-8 0 0 2.7-67.4 3.6-73.9 0.9-6.6 2.7-11.8 9.1-11.2 6.5 0.7 7.2 13 7.2 13 0 0 0.2 58.3 1.5 65.8 1.3 7.6 6 3.7 6.8 1.8 0.7-1.9 3-11.8 3-11.8 0 0 5.5-30.9 8.8-44.3 3.3-13.3 5.7-23.2 9-30.1 3.4-6.8 10.1-4 11.9-1.1 1.9 3-0.5 18.7-0.5 18.7 0 0-7.2 50.6-8.2 58.7-1 8.1-1.9 10.7-1.2 14 0.7 3.3 6.2 3.7 8.1-0.6 1.9-4.4 5.6-12 5.6-12 0 0 19.3-40.5 24.8-48.6 5.5-8 9.1-6 13.9-2.7 4.8 3.2-3.3 20.3-3.3 20.3 0 0-11.1 25.1-17.4 39-6.4 13.9-9.8 25.8-10.9 33.8-1 8 0.5 14.3 6.4 15.9 4.1 1.1 8.9-1.6 11.2-3 4.7-3.2 9-7.5 16.9-13 7.9-5.6 20.6-4.9 24.9-3.1 4.5 1.8 4.4 8.3 0 10.9-14.7 8.7-16.4 11.8-20.6 17-4.5 5.5-12 13.1-17.4 22.6-5.4 9.6-14.3 18-25.6 27.4-11.3 9.4-13.5 26.2-13.5 26.2l-1.7 16.8c0 0-4.4 48.1-8.1 91.4-1.4 14.9-10.2 169.1-11.3 201.7-5.4 2.9-11 5.9-16.7 8.9-9.4-7.3-18.6-14.5-27.5-21.6q-14.5-11.6-27.8-23c6.1-56.5 22.1-260 23-272.8z"/></svg>
